X:4375
T:Morning Reel
O:england
M:C|
C:Stefan Engstr\"om
K:G
DGBF EFGE|D2 d^c dAFA|GB(3BAG FAGF|~E3F GDGA|\
B2(3dcB AcBA|GABG E3G|DGBd cBAB|1 G2(3AGF G3E:|2 G2(3AGF G2Bd||\
g2dc BGBd|g2(3dcB A2Bd|g2dc BGAB|cdBc A2(Bcd|\
g2dc BGBd|gbaf g2fe|d2BG (3efg dB|1 ~A3B G2Bd|2 A3B G3E||
